!!!OTL: God Save Our Lord the King
!!!ARE: Europa, Mitteleuropa, England
!!!SCT: B0713
!!!YEM: Copyright 1995, estate of Helmut Schaffrath.
**kern
*ICvox
*Ivox
*M3/4
*k[f#]
*G:
=1
{4g
4g
4g
=2
4.f#
8g
4a}
=3
{4b
4b
4cc
=4
4.a
8a
4b}
=5
{4a
4.f#
8g
=6
2.g}
=7
{4g
4g
4g
=8
4.f#
8g
4a}
=9
{4b
4b
4cc
=10
4.a
8a
4b}
=11
{4a
4.f#
8g
=12
2.g}
=13
{4dd
4dd
4dd
=14
4.dd
8cc
4b}
=15
{4cc
4cc
4cc
=16
4.cc
8b
4a}
=17
{4b
8cc
8b
8a
8g
=18
4.b
8cc
4dd}
=19
{4ee
4.a
8g
=20
2.g}
==
!!!AGN: National - Hymne
!!!ONB: ESAC (Essen Associative Code) Database: BOEHME
!!!AMT: simple triple
!!!AIN: vox
!!!EED: Helmut Schaffrath
!!!EEV: 1.0
*-
